packages/components/icon/src/assets/icons/followed.svg

<svg width="24" height="24" viewBox="0 0 24 24" fill="none" xmlns="http://www.w3.org/2000/svg">
<path fill-rule="evenodd" clip-rule="evenodd" d="M11.1353 3.41219C11.3233 3.15186 11.562 3.01446 11.8512 3C12.1405 3.01446 12.3791 3.15186 12.5671 3.41219C12.6105 3.47004 12.6829 3.6219 12.7841 3.86777L14.2159 9.05269C14.2159 9.125 14.2665 9.19731 14.3678 9.26963C14.4401 9.32748 14.5196 9.3564 14.6064 9.3564H19.5961C19.7407 9.3564 19.8853 9.3781 20.03 9.42149C20.2324 9.47934 20.3988 9.58058 20.5289 9.72521C20.6736 9.8843 20.7314 10.0579 20.7025 10.2459C20.7025 10.4339 20.6302 10.6364 20.4855 10.8533C20.4421 10.9112 20.3264 11.0124 20.1384 11.157L16.1467 13.782C16.1178 13.7965 16.078 13.8471 16.0274 13.9339C15.9768 14.0207 15.9587 14.093 15.9731 14.1508V14.2376L17.7304 19.3791C17.7882 19.5382 17.8171 19.7045 17.8171 19.8781C17.8171 20.095 17.7665 20.2758 17.6653 20.4205C17.593 20.5217 17.4954 20.6049 17.3724 20.6699C17.2495 20.735 17.1229 20.7676 16.9928 20.7676C16.8337 20.7531 16.7071 20.7278 16.6131 20.6916C16.5191 20.6555 16.436 20.6085 16.3636 20.5506C16.2913 20.4928 16.2407 20.4566 16.2118 20.4421L12.0899 17.0795C12.0465 17.0362 11.9742 17.0145 11.8729 17.0145C11.7717 17.0145 11.7066 17.0362 11.6777 17.0795L7.75103 20.4205C7.62087 20.5217 7.50517 20.5976 7.40393 20.6482C7.30269 20.6989 7.15806 20.7314 6.97004 20.7459C6.85434 20.7603 6.72779 20.735 6.59039 20.6699C6.453 20.6049 6.35537 20.5217 6.29752 20.4205C6.18182 20.2614 6.12397 20.0733 6.12397 19.8564C6.12397 19.7552 6.15289 19.6033 6.21074 19.4008L7.77273 14.281V14.1508C7.77273 14.093 7.75103 14.0243 7.70764 13.9447C7.66426 13.8652 7.6281 13.8182 7.59917 13.8037L3.58574 11.157C3.44111 11.0558 3.32541 10.9545 3.23864 10.8533C3.07954 10.6653 3 10.4628 3 10.2459C3 10.0434 3.05785 9.86984 3.17355 9.72521C3.30372 9.59504 3.41942 9.50827 3.52066 9.46488C3.70868 9.39256 3.90392 9.3564 4.1064 9.3564H9.09607C9.18285 9.3564 9.2624 9.32748 9.33471 9.26963C9.43595 9.19731 9.48657 9.125 9.48657 9.05269L10.9401 3.86777C10.9979 3.66529 11.063 3.51343 11.1353 3.41219Z" fill="currentColor"/>
</svg>

<svg viewBox="0 0 24 24" fill="none" xmlns="http://www.w3.org/2000/svg"><path fill-rule="evenodd" clip-rule="evenodd" d="M11.135 3.412c.188-.26.427-.398.716-.412.29.014.528.152.716.412.043.058.116.21.217.456l1.432 5.185c0 .072.05.144.152.217a.373.373 0 0 0 .238.086h4.99c.145 0 .29.022.434.065.202.058.369.16.499.304a.61.61 0 0 1 .174.52c0 .189-.073.391-.218.608-.043.058-.159.16-.347.304l-3.991 2.625c-.03.014-.069.065-.12.152-.05.087-.068.159-.054.217v.087l1.757 5.141c.058.16.087.325.087.5 0 .216-.05.397-.152.541a.827.827 0 0 1-.293.25.802.802 0 0 1-.38.098 1.455 1.455 0 0 1-.379-.076.93.93 0 0 1-.25-.141 1.095 1.095 0 0 0-.151-.109L12.09 17.08c-.043-.043-.116-.064-.217-.064-.101 0-.166.021-.195.064L7.75 20.42c-.13.102-.246.178-.347.228-.101.05-.246.083-.434.098a.689.689 0 0 1-.38-.076.635.635 0 0 1-.292-.25.933.933 0 0 1-.174-.564c0-.1.029-.253.087-.455l1.562-5.12v-.13a.448.448 0 0 0-.065-.206c-.044-.08-.08-.127-.109-.141l-4.013-2.647a1.859 1.859 0 0 1-.347-.304.923.923 0 0 1-.239-.607c0-.203.058-.376.174-.52.13-.131.245-.218.347-.261.188-.072.383-.109.585-.109h4.99a.373.373 0 0 0 .239-.086c.1-.073.152-.145.152-.217l1.453-5.185a1.53 1.53 0 0 1 .195-.456Z" fill="currentColor"/></svg>
